X:1
T:Title
%%score { ( 1 4 ) | ( 2 3 ) }
L:1/8
M:6/8
K:A
V:1 bass nm="Grand Piano"
V:4 bass 
V:2 bass 
V:3 bass 
V:1
 z3 z2[Q:1/4=77] [E,CE] | [E,CE][K:treble][Ec][DB] [CA][B,G][CA] | %2
 [B,DB][DF][A,DA] [E,CE]2 [DF]/[DG]/ | [A,CA][Fd][Ec] [C^Dc][DB][DF] | [DB]6[K:bass] | %5
 [A,CA][DB][^D=c] [E^c][E=Ge][Ge] |[M:5/8] [DFd][FA][^EB] [C=Ec]2 |[M:1/8] [DFd] | %8
[M:3/4] [CEc]E AG AB |[M:5/8] [CA]-[CA]- [CA]3 |[M:1/8] [Ec]/[Ec]/ |[M:3/4] [Ec][Ec] [Ec]B AF | %12
 EF G A2 [=GA]/[GA]/ | [FA][FA] [FA][FB] [FA][FB] | [^Ec]4- [Ec][=Ed]/[Ed]/ | %15
 [Ec][Ec] [Ed] [Ee]2 [EA]/[EG]/ | [DF][FA] [^EB] [=Ec]2 E | F[FA] [Fd][Fd] cB | %18
[M:5/8] [CA]-[CA]- [CA]3 |] %19
V:2
 z3 z2 A,, | z CB, A,G,A, | z F,F,, A,,2 F,/G,/ | z DC z B,F, | E,,G,,B,, E,2 G,, | z B,=C .^C2 E | %6
[M:5/8] z A,B, A,,2 |[M:1/8] D,, |[M:3/4] z [E,C] [A,C][G,B,] [A,C][B,D] | %9
[M:5/8] [A,,A,]-[A,,A,]- [A,,A,]3 |[M:1/8] [A,,A,]/[A,,A,]/ | %11
[M:3/4] [A,,A,][A,,A,] [A,,A,][D,F,D] [D,F,D][D,A,D] | %12
 [E,G,D][E,A,D] [E,B,D] [F,A,C]2 [E,C]/[E,C]/ | [D,D][D,D] [D,D][D,D] [D,A,][D,F,] | %14
 [C,G,]4- [C,G,][B,,G,]/[B,,G,]/ | [A,,A,][A,,A,] [A,,B,] [A,C]2 [C,A,]/[C,A,]/ | %16
 [D,A,][D,A,] [D,A,] [A,,A,]2 [C,A,] | [D,A,D][D,A,] [D,A,][E,G,] [E,A,E][E,D] | %18
[M:5/8] [A,,E,]-[A,,E,]- [A,,E,]3 |] %19
V:3
 x6 | A,,6 | .D,3 z3 | A,,3 B,,3 | x6 | A,,3- A,, C,2 |[M:5/8] D,3 z2 |[M:1/8] x |[M:3/4] E,,6 | %9
[M:5/8] x5 |[M:1/8] x |[M:3/4] x6 | x6 | x6 | x6 | x6 | x6 | x6 |[M:5/8] x5 |] %19
V:4
 x6 | x[K:treble] x5 | x6 | x6 | B,3[K:bass] B,2 [E,DE] | x6 |[M:5/8] x5 |[M:1/8] x |[M:3/4] x6 | %9
[M:5/8] x5 |[M:1/8] x |[M:3/4] x6 | x6 | x6 | x6 | x6 | x6 | x6 |[M:5/8] x5 |] %19

